Origami/64x64/apps/swell-foop.svg

<svg width="64" height="64" version="1" xmlns="http://www.w3.org/2000/svg">
 <path d="m4 56v2c0 1.662 1.338 3 3 3h50c1.662 0 3-1.338 3-3v-2c0 1.662-1.338 3-3 3h-50c-1.662 0-3-1.338-3-3z" style="opacity:.2"/>
 <path d="m32 4h-25c-1.662 0-3 1.338-3 3v25h28z" style="fill:#f2ae37"/>
 <path d="m32 4h25c1.662 0 3 1.338 3 3v25h-28z" style="fill:#4785e2"/>
 <path d="m32 60h-25c-1.662 0-3-1.338-3-3v-25h28z" style="fill:#4785e2"/>
 <path d="m32 60h25c1.662 0 3-1.338 3-3v-25h-28z" style="fill:#77e247"/>
 <path d="m7 4c-1.662 0-3 1.338-3 3v1c0-1.662 1.338-3 3-3h50c1.662 0 3 1.338 3 3v-1c0-1.662-1.338-3-3-3h-50z" style="fill:#ffffff;opacity:.1"/>
 <path d="m18.000131 8.0001022 3.090199 6.5836688 6.909852 1.055742-5.000026 5.12462 1.180374 7.236148-6.180399-3.416485-6.180399 3.416485 1.180374-7.236148-5.0000256-5.12462 6.9098516-1.055742z" style="fill:#3f3f3f"/>
 <circle cx="46" cy="18" r="10" style="fill:#3f3f3f"/>
 <rect x="36" y="36" width="20" height="20" style="fill:#3f3f3f"/>
 <circle cx="18" cy="46" r="10" style="fill:#3f3f3f"/>
</svg>

<svg xmlns="http://www.w3.org/2000/svg" width="64" height="64" version="1">
 <path style="opacity:0.2" d="m 4,56 0,2 c 0,1.662 1.338,3 3,3 l 50,0 c 1.662,0 3,-1.338 3,-3 l 0,-2 c 0,1.662 -1.338,3 -3,3 L 7,59 C 5.338,59 4,57.662 4,56 Z"/>
 <path style="fill:#f2ae37" d="M 32,4 7,4 C 5.338,4 4,5.338 4,7 l 0,25 28,0 z"/>
 <path style="fill:#4785e2" d="m 32,4 25,0 c 1.662,0 3,1.338 3,3 l 0,25 -28,0 z"/>
 <path style="fill:#4785e2" d="M 32,60 7,60 C 5.338,60 4,58.662 4,57 l 0,-25 28,0 z"/>
 <path style="fill:#77e247" d="m 32,60 25,0 c 1.662,0 3,-1.338 3,-3 l 0,-25 -28,0 z"/>
 <path style="opacity:0.1;fill:#ffffff" d="M 7 4 C 5.338 4 4 5.338 4 7 L 4 8 C 4 6.338 5.338 5 7 5 L 57 5 C 58.662 5 60 6.338 60 8 L 60 7 C 60 5.338 58.662 4 57 4 L 7 4 z"/>
 <path style="fill:#3f3f3f" d="m 18.000131,8.0001022 3.090199,6.5836688 6.909852,1.055742 -5.000026,5.12462 1.180374,7.236148 -6.180399,-3.416485 -6.180399,3.416485 1.180374,-7.236148 -5.0000256,-5.12462 6.9098516,-1.055742 z"/>
 <circle style="fill:#3f3f3f" cx="46" cy="18" r="10"/>
 <rect style="fill:#3f3f3f" width="20" height="20" x="36" y="36"/>
 <circle style="fill:#3f3f3f" cx="18" cy="46" r="10"/>
</svg>
